X:73
T:Chacony in G minor
C:Purcell, H.
M:3/4
L:1/8
Q:1/4=60
K:Gmin
|:D2|g4 fg|a2 gf e2|f4 ef|g4 d2|
e4 fg|a2 ba g2|f2 ed cB|G4:|

